X: 128
T:St. Anne's Reel
R:Reel
Z:Originally French Canadian, no
M:C|
L:1/8
Q:1/2=112
K:D
de|fedf edcB|A2FA DAFA|B2GB EBGB|A2FA DAFA|
fedf edcB|A2FA DAFA|BGBd cAce|d2dc d2:|
ag|fdfa fdfa|aggf ~g3f|edcB Acea|baa^g a3=g|
fdfa fdfa|aggf ~g3f|edcB Acec|dedc d2:|
